X:836
T:Banks of The Spey, The 
C:Joe Buchanan's Scottish Tome - Page 405.2
I:405 2
C:Willam Marshall
R:Strathspey
Z:Carl Allison
L:1/8
M:4/4
K:C
(A>G) | "Am"E<A A>B A>B c<e | "G"d>c BA G2 (GB) | "Am"E<A A>B A>Bc>d | "C"e>c d<e "G"g2 g2 |
"C"a>ge>c "G"d>e g<a | "C"e<g g>B "Em"G2 (G>B) | "Am"A<E A>B c>d e>g | "Em"e>d c>B "Am"A2 (A>c) |
"Am"A<E A>c A<E "G"B>c | dcBA G2 (G>B) | "Am"A<E A>c A<E c>d | "C"e>c d<e "G"g2 g2 |
"C"a>ge>c "G"d>e g<a | "C"e<g g>B "Em"G2 (G>B) | "Am"A<E A>B c>d f<g | "E7"e>d cB "Am"A2 |]
W:Errata: Removed the B>c at the beginning of the second measure third line because it was likely a
W:        typo and created a cadence error.

